X: 1
T: Judique Jig
C: Winston Fitzgerald (1914-1987)
R: jig
S: Fiddle Hell session led by Andrea Beaton 2021-11-5
Z: 2021 John Chambers <jc:trillian.mit.edu>
M: 6/8
L: 1/8
K: A
cd \
| efe c2d | eae c2e | dcd B2c | d3 dcd \
| efe ce=g | fef dfa | g2b gfg | a3 a :|
|: ze \
| agf edc | Bcd f2e | cde a2e | cde f2g \
| agf edc | Bcd f2a | efe dcB | A3 a :|
%%text Andrea often iomitted the pickups and the final (high) a notes.
